app/[lang]/(home)/(new-home)/assets/choices-beam-grid.svg

<svg width="647" height="272" viewBox="0 0 647 272" fill="none" xmlns="http://www.w3.org/2000/svg">
<path opacity="0.3" d="M745.236 608.004H-758.963V607.004H745.236V608.004ZM-836.619 321.409H-837.619V-0.153564H-836.619V321.409ZM-761.039 321.409H-762.039V-0.153564H-761.039V321.409ZM-685.458 304.681H-6.2345V230.52H-30.7638V229.52H-6.2345V154.52H-30.7638V153.52H-6.2345V78.5203H-30.7638V77.5203H-6.2345V-0.153564H-5.2345V77.5203H69.3466V-0.153564H70.3466V77.5203H144.927V-0.153564H145.927V77.5203H220.507V-0.153564H221.507V77.5203H296.088V-0.153564H297.088V77.5203H371.669V-0.153564H372.669V77.5203H447.249V-0.153564H448.249V77.5203H522.829V-0.153564H523.829V77.5203H598.41V-0.153564H599.41V77.5203H673.99V-0.153564H674.99V77.5203H745.236V78.5203H674.99V153.52H745.236V154.52H674.99V229.52H745.236V230.52H674.99V304.681H745.236V305.681H674.99V321.409H673.99V305.681H599.41V321.409H598.41V305.681H523.829V321.409H522.829V305.681H448.249V321.409H447.249V305.681H372.669V321.409H371.669V305.681H297.088V321.409H296.088V305.681H221.507V321.409H220.507V305.681H145.927V321.409H144.927V305.681H70.3466V321.409H69.3466V305.681H-5.2345V321.409H-6.2345V305.681H-685.458V321.409H-686.458V305.681H-758.963V304.681H-686.458V-0.153564H-685.458V304.681ZM750.571 321.409H749.571V-0.153564H750.571V321.409ZM826.151 321.409H825.151V-0.153564H826.151V321.409ZM901.731 321.409H900.731V-0.153564H901.731V321.409ZM-5.2345 230.52V304.681H69.3466V230.52H-5.2345ZM70.3466 230.52V304.681H144.927V230.52H70.3466ZM145.927 230.52V304.681H220.507V230.52H145.927ZM221.507 230.52V304.681H296.088V230.52H221.507ZM297.088 230.52V304.681H371.669V230.52H297.088ZM372.669 230.52V304.681H447.249V230.52H372.669ZM448.249 230.52V304.681H522.829V230.52H448.249ZM523.829 230.52V304.681H598.41V230.52H523.829ZM599.41 230.52V304.681H673.99V230.52H599.41ZM-5.2345 154.52V229.52H69.3466V154.52H-5.2345ZM70.3466 154.52V229.52H144.927V154.52H70.3466ZM145.927 154.52V229.52H220.507V154.52H145.927ZM221.507 154.52V229.52H296.088V154.52H221.507ZM297.088 154.52V229.52H371.669V154.52H297.088ZM372.669 154.52V229.52H447.249V154.52H372.669ZM448.249 154.52V229.52H522.829V154.52H448.249ZM523.829 154.52V229.52H598.41V154.52H523.829ZM599.41 154.52V229.52H673.99V154.52H599.41ZM-5.2345 78.5203V153.52H69.3466V78.5203H-5.2345ZM70.3466 78.5203V153.52H144.927V78.5203H70.3466ZM145.927 78.5203V153.52H220.507V78.5203H145.927ZM221.507 78.5203V153.52H296.088V78.5203H221.507ZM297.088 78.5203V153.52H371.669V78.5203H297.088ZM372.669 78.5203V153.52H447.249V78.5203H372.669ZM448.249 78.5203V153.52H522.829V78.5203H448.249ZM523.829 78.5203V153.52H598.41V78.5203H523.829ZM599.41 78.5203V153.52H673.99V78.5203H599.41Z" fill="url(#paint0_radial_565_29075)"/>
<g filter="url(#filter0_f_565_29075)">
<path d="M518.921 77.4729C518.921 80.4184 521.309 82.8062 524.255 82.8062C527.2 82.8062 529.588 80.4184 529.588 77.4729C529.588 74.5274 527.2 72.1396 524.255 72.1396C521.309 72.1396 518.921 74.5274 518.921 77.4729ZM226.569 154.16L226.562 155.16L226.569 154.16ZM145.396 229.752V230.752H216.536V229.752V228.752H145.396V229.752ZM221.536 224.752H222.536V159.16H221.536H220.536V224.752H221.536ZM226.569 154.16L226.562 155.16L367.862 156.097L367.868 155.097L367.875 154.097L226.576 153.16L226.569 154.16ZM372.901 150.097H373.901V83.4433H372.901H371.901V150.097H372.901ZM377.868 78.4434L377.875 79.4434L524.261 78.4729L524.255 77.4729L524.248 76.4729L377.862 77.4434L377.868 78.4434ZM372.901 83.4433H373.901C373.901 81.2445 375.676 79.458 377.875 79.4434L377.868 78.4434L377.862 77.4434C374.563 77.4653 371.901 80.1451 371.901 83.4433H372.901ZM367.868 155.097L367.862 156.097C371.191 156.119 373.901 153.426 373.901 150.097H372.901H371.901C371.901 152.316 370.094 154.112 367.875 154.097L367.868 155.097ZM221.536 159.16H222.536C222.536 156.941 224.343 155.145 226.562 155.16L226.569 154.16L226.576 153.16C223.246 153.138 220.536 155.831 220.536 159.16H221.536ZM216.536 229.752V230.752C219.849 230.752 222.536 228.065 222.536 224.752H221.536H220.536C220.536 226.961 218.745 228.752 216.536 228.752V229.752Z" fill="url(#paint1_linear_565_29075)"/>
</g>
<path d="M518.921 77.4729C518.921 80.4184 521.309 82.8062 524.255 82.8062C527.2 82.8062 529.588 80.4184 529.588 77.4729C529.588 74.5274 527.2 72.1396 524.255 72.1396C521.309 72.1396 518.921 74.5274 518.921 77.4729ZM226.569 154.16L226.562 155.16L226.569 154.16ZM145.396 229.752V230.752H216.536V229.752V228.752H145.396V229.752ZM221.536 224.752H222.536V159.16H221.536H220.536V224.752H221.536ZM226.569 154.16L226.562 155.16L367.862 156.097L367.868 155.097L367.875 154.097L226.576 153.16L226.569 154.16ZM372.901 150.097H373.901V83.4433H372.901H371.901V150.097H372.901ZM377.868 78.4434L377.875 79.4434L524.261 78.4729L524.255 77.4729L524.248 76.4729L377.862 77.4434L377.868 78.4434ZM372.901 83.4433H373.901C373.901 81.2445 375.676 79.458 377.875 79.4434L377.868 78.4434L377.862 77.4434C374.563 77.4653 371.901 80.1451 371.901 83.4433H372.901ZM367.868 155.097L367.862 156.097C371.191 156.119 373.901 153.426 373.901 150.097H372.901H371.901C371.901 152.316 370.094 154.112 367.875 154.097L367.868 155.097ZM221.536 159.16H222.536C222.536 156.941 224.343 155.145 226.562 155.16L226.569 154.16L226.576 153.16C223.246 153.138 220.536 155.831 220.536 159.16H221.536ZM216.536 229.752V230.752C219.849 230.752 222.536 228.065 222.536 224.752H221.536H220.536C220.536 226.961 218.745 228.752 216.536 228.752V229.752Z" fill="url(#paint2_linear_565_29075)"/>
<defs>
<filter id="filter0_f_565_29075" x="127.196" y="53.9396" width="420.592" height="195.012" filterUnits="userSpaceOnUse" color-interpolation-filters="sRGB">
<feFlood flood-opacity="0" result="BackgroundImageFix"/>
<feBlend mode="normal" in="SourceGraphic" in2="BackgroundImageFix" result="shape"/>
<feGaussianBlur stdDeviation="9.1" result="effect1_foregroundBlur_565_29075"/>
</filter>
<radialGradient id="paint0_radial_565_29075" cx="0" cy="0" r="1" gradientTransform="matrix(-251.024 -212.733 256.229 -268.64 324.394 274.894)" gradientUnits="userSpaceOnUse">
<stop offset="0.354622" stop-color="#B0B0B0"/>
<stop offset="1"/>
</radialGradient>
<linearGradient id="paint1_linear_565_29075" x1="496.322" y1="77.4729" x2="152.112" y2="229.752" gradientUnits="userSpaceOnUse">
<stop stop-color="white"/>
<stop offset="1" stop-color="#1E1E1E"/>
</linearGradient>
<linearGradient id="paint2_linear_565_29075" x1="496.322" y1="77.4729" x2="152.112" y2="229.752" gradientUnits="userSpaceOnUse">
<stop stop-color="white"/>
<stop offset="1" stop-color="#1E1E1E"/>
</linearGradient>
</defs>
</svg>

<svg xmlns="http://www.w3.org/2000/svg" fill="none" viewBox="0 0 647 272">
  <path
    fill="url(#a)"
    d="M745.24 608h-1504.2v-1h1504.2v1ZM-836.62 321.4h-1V-.14h1V321.4Zm75.58 0h-1V-.14h1V321.4Zm75.58-16.72H-6.23v-74.16h-24.53v-1h24.53v-75h-24.53v-1h24.53v-75h-24.53v-1h24.53V-.15h1v77.67h74.58V-.15h1v77.67h74.58V-.15h1v77.67h74.58V-.15h1v77.67h74.58V-.15h1v77.67h74.58V-.15h1v77.67h74.58V-.15h1v77.67h74.58V-.15h1v77.67h74.58V-.15h1v77.67h74.58V-.15h1v77.67h70.25v1h-70.25v75h70.25v1h-70.25v75h70.25v1h-70.25v74.16h70.25v1h-70.25v15.73h-1v-15.73h-74.58v15.73h-1v-15.73h-74.58v15.73h-1v-15.73h-74.58v15.73h-1v-15.73h-74.58v15.73h-1v-15.73h-74.58v15.73h-1v-15.73H221.5v15.73h-1v-15.73h-74.58v15.73h-1v-15.73H70.35v15.73h-1v-15.73H-5.23v15.73h-1v-15.73h-679.23v15.73h-1v-15.73h-72.5v-1h72.5V-.15h1v304.83Zm1436.03 16.73h-1V-.15h1V321.4Zm75.58 0h-1V-.15h1V321.4Zm75.58 0h-1V-.15h1V321.4ZM-5.23 230.52v74.16h74.58v-74.16H-5.23Zm75.58 0v74.16h74.58v-74.16H70.35Zm75.58 0v74.16h74.58v-74.16h-74.58Zm75.58 0v74.16h74.58v-74.16H221.5Zm75.58 0v74.16h74.58v-74.16h-74.58Zm75.58 0v74.16h74.58v-74.16h-74.58Zm75.58 0v74.16h74.58v-74.16h-74.58Zm75.58 0v74.16h74.58v-74.16h-74.58Zm75.58 0v74.16h74.58v-74.16h-74.58Zm-604.64-76v75h74.58v-75H-5.23Zm75.58 0v75h74.58v-75H70.35Zm75.58 0v75h74.58v-75h-74.58Zm75.58 0v75h74.58v-75H221.5Zm75.58 0v75h74.58v-75h-74.58Zm75.58 0v75h74.58v-75h-74.58Zm75.58 0v75h74.58v-75h-74.58Zm75.58 0v75h74.58v-75h-74.58Zm75.58 0v75h74.58v-75h-74.58Zm-604.64-76v75h74.58v-75H-5.23Zm75.58 0v75h74.58v-75H70.35Zm75.58 0v75h74.58v-75h-74.58Zm75.58 0v75h74.58v-75H221.5Zm75.58 0v75h74.58v-75h-74.58Zm75.58 0v75h74.58v-75h-74.58Zm75.58 0v75h74.58v-75h-74.58Zm75.58 0v75h74.58v-75h-74.58Zm75.58 0v75h74.58v-75h-74.58Z"
    opacity=".3"
  />
  <g filter="url(#b)">
    <path
      fill="url(#c)"
      d="M518.92 77.47a5.33 5.33 0 1 0 10.67 0 5.33 5.33 0 0 0-10.67 0Zm-292.35 76.69v1-1Zm-81.17 75.6v1h71.14v-2H145.4v1Zm76.14-5h1v-65.6h-2v65.6h1Zm5.03-70.6v1l141.3.94v-2l-141.3-.94v1Zm146.33-4.06h1V83.44h-2v66.66h1Zm4.97-71.66v1l146.4-.97-.01-1-.01-1-146.39.97v1Zm-4.97 5h1a4 4 0 0 1 3.98-4l-.01-1v-1a6 6 0 0 0-5.97 6h1Zm-5.03 71.66v1a6 6 0 0 0 6.03-6h-2a4 4 0 0 1-4.02 4l-.01 1Zm-146.33 4.06h1a4 4 0 0 1 4.02-4v-1l.02-1a6 6 0 0 0-6.04 6h1Zm-5 70.6v1a6 6 0 0 0 6-6h-2a4 4 0 0 1-4 4v1Z"
    />
  </g>
  <path
    fill="url(#d)"
    d="M518.92 77.47a5.33 5.33 0 1 0 10.67 0 5.33 5.33 0 0 0-10.67 0Zm-292.35 76.69v1-1Zm-81.17 75.6v1h71.14v-2H145.4v1Zm76.14-5h1v-65.6h-2v65.6h1Zm5.03-70.6v1l141.3.94v-2l-141.3-.94v1Zm146.33-4.06h1V83.44h-2v66.66h1Zm4.97-71.66v1l146.4-.97-.01-1-.01-1-146.39.97v1Zm-4.97 5h1a4 4 0 0 1 3.98-4l-.01-1v-1a6 6 0 0 0-5.97 6h1Zm-5.03 71.66v1a6 6 0 0 0 6.03-6h-2a4 4 0 0 1-4.02 4l-.01 1Zm-146.33 4.06h1a4 4 0 0 1 4.02-4v-1l.02-1a6 6 0 0 0-6.04 6h1Zm-5 70.6v1a6 6 0 0 0 6-6h-2a4 4 0 0 1-4 4v1Z"
  />
  <defs>
    <linearGradient
      id="c"
      x1="496.32"
      x2="152.11"
      y1="77.47"
      y2="229.75"
      gradientUnits="userSpaceOnUse"
    >
      <stop stop-color="#fff" />
      <stop offset="1" stop-color="#1E1E1E" />
    </linearGradient>
    <linearGradient
      id="d"
      x1="496.32"
      x2="152.11"
      y1="77.47"
      y2="229.75"
      gradientUnits="userSpaceOnUse"
    >
      <stop stop-color="#fff" />
      <stop offset="1" stop-color="#1E1E1E" />
    </linearGradient>
    <radialGradient
      id="a"
      cx="0"
      cy="0"
      r="1"
      gradientTransform="matrix(-251 -212.7 256.2 -268.6 324.4 274.9)"
      gradientUnits="userSpaceOnUse"
    >
      <stop offset=".35" stop-color="#B0B0B0" />
      <stop offset="1" />
    </radialGradient>
    <filter
      id="b"
      width="420.59"
      height="195.01"
      x="127.2"
      y="53.94"
      color-interpolation-filters="sRGB"
      filterUnits="userSpaceOnUse"
    >
      <feFlood flood-opacity="0" result="BackgroundImageFix" />
      <feBlend in="SourceGraphic" in2="BackgroundImageFix" result="shape" />
      <feGaussianBlur
        result="effect1_foregroundBlur_565_29075"
        stdDeviation="9.1"
      />
    </filter>
  </defs>
</svg>
